X:18138
T:Valse - Valse/Walzer/Waltz
C:
Z:abc transcription Simon Wascher
N:please mail errors to simon.wascher@chello.at
M:3/4
L:1/4
K:G
D|GG/F/G/A/|BAG|F/G/A/G/F/E/|D2D|
AA/G/A/B/|cBA|DE/F/G/A/|1BG:|2G2||
|:B|BGB|BG/B/G/B/|dcB|A2A|
AGA|AGA/B/|cBA|G2:|
